X:1
T:The Well-Tempered Clavier Book II - IX
T:BWV 878    (A = 415 Hz)
T:J. S. Bach
%%score { ( 1 2 5 ) | ( 3 4 6 ) }
L:1/8
M:3/4
K:E
V:1 treble 
V:2 treble 
V:5 treble 
V:3 bass 
V:4 bass 
V:6 bass 
V:1
"^Praeludium" z B c2- c/c/B/A/ | B2- B/B/e/d/ c/B/A/G/ | A6- | A2 G2- G/G/F/E/ | D z z d e2- | %5
 e/e/d/c/ d z z2 | z/ d/c/B/ c4- | c2- c/c/B/^A/ B2- | B/A/G/F/ ^E/F/B/=d/- d/d/c/B/- | %9
 B/A/G/B/ A/c/f/a/- a/f/g/a/ | ^Bc d4 | z G ce ^AB/c/- | c/^E/F/G/ ^A/B/c/d/ e/d/e/c/ | d6- | %14
 d2 =dB GB- | B/-B/^A/G/ A/B/c/A/ Ff- | f/e/g/f/ e/d/c/B/ d/F/c/E/ | D/F/B/^A/ B2 G2 | %18
 F/G/=A/G/ A2 F2 | E/F/=G/F/ G2 E2- | Ec cE Df | fB ^Ae eF | F2- FG/B/- B/B^A/ | BE DC D2 | %24
 z B c2- c/c/B/A/ | B2- B/B/e/d/ c/B/A/G/ | A6- | A2 G2- G/G/F/E/ | D z z d e2- | e/e/d/c/ d z z2 | %30
 z/ d/c/B/ c4- | c2- c/c/B/^A/ B2- | B/A/G/F/ ^E/F/B/=d/- d/d/c/B/- | B/A/G/B/ A/c/f/a/- a/f/g/a/ | %34
 ^Bc d4 | z G ce ^AB/c/- | c/^E/F/G/ ^A/B/c/d/ e/d/e/c/ | d6- | d2 =dB GB- | %39
 B/-B/^A/G/ A/B/c/A/ Ff- | f/e/g/f/ e/d/c/B/ d/F/c/E/ | D/F/B/^A/ B2 G2 | F/G/=A/G/ A2 F2 | %43
 E/F/=G/F/ G2 E2- | Ec cE Df | fB ^Ae eF | F2- FG/B/- B/B^A/ | BE DC D2 | z f g2- g/g/f/e/ | %49
 f2- f/f/g/a/ g/f/e/d/ | e2- ee dc | ^B4 z2 | z/ c/G/^^F/ G/^B/c/d/ e/d/e/c/ | %53
 d/^B/G/^^F/ G/B/d/e/ f/e/f/d/ | e2- e>d- d/c^B/ | c2 z2 z2 | %56
 z/ e/d/c/ B/^A/B/c/ d/e/f/4e/4d/4e/4 | f/g/f/e/ d/c/d/e/ f/g/a/4g/4f/4g/4 | %58
 a/c/B/^A/ B/a/g/f/ b/e/d/a/ | g/ z/ z z2 z2 | z/ g/f/e/ f a2 d- | d/f/e/d/ e g2 c- | %62
 c/e/d/c/ df fA- | AG/F/ G4- | G/G/F/E/ D/C/D/E/ F/G/A/4G/4F/4G/4 | A6- | Af fA Gb | be da aB | %68
 B2- Bc/e/- e/ed/ | z/ B/e/d/ e2 c2 | B/c/=d/c/ d2 B2 | A/B/=c/B/ c2 A2- | A2 z2 z2 | %73
 G2 z/ G/F/E/ F2 | z/ B,/E/D/ E/B,/G/E/ B2- | B/E/A/G/ A/E/c/A/ e2- | e/A/d/c/ d/A/f/d/ a/f/e/d/ | %77
 e6 | z f g2- g/g/f/e/ | f2- f/f/g/a/ g/f/e/d/ | e2- ee dc | ^B4 z2 | %82
 z/ c/G/^^F/ G/^B/c/d/ e/d/e/c/ | d/^B/G/^^F/ G/B/d/e/ f/e/f/d/ | e2- e>d- d/c^B/ | c2 z2 z2 | %86
 z/ e/d/c/ B/^A/B/c/ d/e/f/4e/4d/4e/4 | f/g/f/e/ d/c/d/e/ f/g/a/4g/4f/4g/4 | %88
 a/c/B/^A/ B/a/g/f/ b/e/d/a/ | g/ z/ z z2 z2 | z/ g/f/e/ f a2 d- | d/f/e/d/ e g2 c- | %92
 c/e/d/c/ df fA- | AG/F/ G4- | G/G/F/E/ D/C/D/E/ F/G/A/4G/4F/4G/4 | A6- | Af fA Gb | be da aB | %98
 B2- Bc/e/- e/ed/ | z/ B/e/d/ e2 c2 | B/c/=d/c/ d2 B2 | A/B/=c/B/ c2 A2- | A2 z2 z2 | %103
 G2 z/ G/F/E/ F2 | z/ B,/E/D/ E/B,/G/E/ B2- | B/E/A/G/ A/E/c/A/ e2- | e/A/d/c/ d/A/f/d/ a/f/e/d/ | %107
 e6 |[M:4/2] z16 |"^Fuga"[Q:1/4=180] z16 | z16 | z16 | E8 F4 A4 | z8 B8 | c4 e4 d4 c4 | %115
 B8- B2 AG A4- | A4 G4 F4 E4 | D4 z4 z8 | z16 | E8 F4 A4 | G4 F4 ^E2 F2 G2 A2 | B2 F2 B8 A4 | %122
 G8- G6 AB | c2 ^B2 c2 d2 B2 c4 B2 | c8 z8 | B8 c4 e4 | d4 c4 B4 c4 | F2 D2 G4- G2 F^E _G4- | %128
 G2 ED E2 FE D2 B2 ^E4- | E2 F4 ^E2 c4 B4- | B2 A4 G2- G2 F4 ^E2 | F8 G2 A2 B4- | %132
 B2 A2 G4 F4 =E2 F2 | G6 A2 G2 F2 E4 | z8 z4 G4 | A2 c2 B2 A2 G4 ^A4 | B8- B6 ^A2 | %137
 B2 G2 A2 B2 c2 ^d2 e4- | e6 d2 e2 B4 ^A2 | B4 z2 f2 B2 G2 A2 B2 | c4 B4 A4 G4 | %141
 F2 e2 d2 c2 B4 ^A4- | A2 G^^F G4- G6 F2 | G4 z2 B2 G2 E2 F2 G2 | A2 B2 c2 d2 eB e4 d2- | %145
 d2 cB c4 B2 z2 e4 | f4 a4 g4 f4 | e4 d4 c4 B4- | B2 c2 B2 A2 G4 z4 | z4 e4 d4 c4 | %150
 B4 A4 GFGA B2 [CA]2 | G4 F4 !fermata!E8 |] %152
V:2
 z2 z G A2- | A/A/G/F/ G z z2 | z/ G/F/E/ F4- | F2- F/F/E/D/ E z | z[I:staff +1] F G2- G/G/F/E/ | %5
 F2- F/[I:staff -1]A/B/A/ G/F/E/D/ | E6- | E/E/D/C/ D4 | z[I:staff +1] A, B,=D/^E/ FE- | %9
 E^E F=E DC |[I:staff -1] DE FA/^B/ cB | c2 z2 =G2 | F z z2 z2 | %13
 z/[I:staff +1] ^A,/B,/C/ D/E/F/G/[I:staff -1] A/G/A/F/ | G/F/G/^A/ BG ^E2 | %15
[I:staff +1] E4- E/E/D/C/ | D^A, B,3 A, | B,2[I:staff -1] z/ F/E/F/- F/E/D/E/- | %18
 E2 z/ E/D/E/- E/D/C/D/- | D2 z/ D/C/D/- D/C/B,/C/- | C2 z C B, z | z D C z z [CE] | E2- E<D CE- | %23
 E/DC/- C/B,^A,/ B,2 | z2 z G A2- | A/A/G/F/ G z z2 | z/ G/F/E/ F4- | F2- F/F/E/D/ E z | %28
 z[I:staff +1] F G2- G/G/F/E/ | F2- F/[I:staff -1]A/B/A/ G/F/E/D/ | E6- | E/E/D/C/ D4 | %32
 z[I:staff +1] A, B,=D/^E/ FE- | E^E F=E DC |[I:staff -1] DE FA/^B/ cB | c2 z2 =G2 | F z z2 z2 | %37
 z/[I:staff +1] ^A,/B,/C/ D/E/F/G/[I:staff -1] A/G/A/F/ | G/F/G/^A/ BG ^E2 | %39
[I:staff +1] E4- E/E/D/C/ | D^A, B,3 A, | B,2[I:staff -1] z/ F/E/F/- F/E/D/E/- | %42
 E2 z/ E/D/E/- E/D/C/D/- | D2 z/ D/C/D/- D/C/B,/C/- | C2 z C B, z | z D C z z [CE] | E2- E<D CE- | %47
 E/DC/- C/B,^A,/ B,2 | z2 z d e2- | e/e/d/c/ d z z2 | z/ d/c/B/ c2 F2- | %51
 F/F/G/A/ G/F/E/D/ C/^B,/C/D/ |[I:staff +1] G,C CG, G,G, | G,D DG, G,G, | %54
[I:staff -1] G,/c/G/B/ A/c/F ED | E/A/G/F/ E/D/E/F/ G/A/B/4A/4G/4A/4 | B z z2 z2 | %57
 z[I:staff +1] B AG FE | DE DC B,2- | B,/[I:staff -1]F/E/D/ E/=d/c/B/ e/A/G/d/ | c4 B2- | B4 A2- | %62
 A4- AD- | D<B,- B,2 z2 | C2 z2 z2 | z/ E/D/C/ B,/^A,/B,/C/ D/E/F/4E/4D/4E/4 | %66
 F z z F[I:staff +1] E[I:staff -1] z | z G F z z [FA] | A2- A<G FA | G2 z/ B/A/B/ z/ A/G/A/- | %70
 A2 z/ A/G/A/- A/G/F/G/- | G2 z/ G/F/G/ z/ F/E/F/- | F2 z2 z/ B,/C/D/ | E2 z2 F/C/D | %74
 z2 z2 z/ F/E/=D/ | C z z2 z/ B/A/G/ | F z z2 z2 | [GB]6 | z2 z d e2- | e/e/d/c/ d z z2 | %80
 z/ d/c/B/ c2 F2- | F/F/G/A/ G/F/E/D/ C/^B,/C/D/ |[I:staff +1] G,C CG, G,G, | G,D DG, G,G, | %84
[I:staff -1] G,/c/G/B/ A/c/F ED | E/A/G/F/ E/D/E/F/ G/A/B/4A/4G/4A/4 | B z z2 z2 | %87
 z[I:staff +1] B AG FE | DE DC B,2- | B,/[I:staff -1]F/E/D/ E/=d/c/B/ e/A/G/d/ | c4 B2- | B4 A2- | %92
 A4- AD- | D<B,- B,2 z2 | C2 z2 z2 | z/ E/D/C/ B,/^A,/B,/C/ D/E/F/4E/4D/4E/4 | %96
 F z z F[I:staff +1] E[I:staff -1] z | z G F z z [FA] | A2- A<G FA | G2 z/ B/A/B/ z/ A/G/A/- | %100
 A2 z/ A/G/A/- A/G/F/G/- | G2 z/ G/F/G/ z/ F/E/F/- | F2 z2 z/ B,/C/D/ | E2 z2 F/C/D | %104
 z2 z2 z/ F/E/=D/ | C z z2 z/ B/A/G/ | F z z2 z2 | [GB]6 |[M:4/2] x16 | x16 | x16 | x16 | x16 | %113
 G4 F4 E4 z2 B,2 | E2 F2 G2 ^A2 BF B4 =A2- | A2 GF G4 C6 DE | D4 E4- E2 D2 C4 | F,4 B,4 C4 E4 | %118
 D4 C4 B,2 E4 D2- | D2 C4 B,^A, B,2 F4 ED | E6 D2 C8 | B,2 C2 D2 E2 F2 C2 F4- | F4 E4 D8 | %123
 C2 D2 E2 F2 G4 F4 | E8 F4 A4 | G4 F4 E2 C2 G4- | G2 F^E F4- F2 =ED E2 FE | D6 G,2 A,6 ^A,2 | %128
 B,6 ^A,2 B,4 =D4 | C8- C4 G4 | C4 B,4 A,4 G,4 | A,2 B,2 C4- C4 D2 ^E2 | F6 ^E2 D4 C4- | %133
 C2 DC ^B,4 C2 D2 G,4 | D2 ED C2 A2 ^B,2 C4 B,2 | C4 D4 E2 G2 F2 E2 | D2 A2 G2 F2 E2 G2 F2 E2 | %137
 D2 E2 F2 G2 A6 G2 | F2 E2 F4 E8 | F4 A4 G4 F4 | E2 A4 G2 F2 =d2 c2 B2 | A2 ^^F2 G2 ^A2 G2 ^F2 E4 | %142
 D4 ^^C4 D8 | D4[I:staff +1] B,4 C4 D4 | D4 C4 B,4[I:staff -1] B4 | G2 E2 G2 ^A2 BF B4 =A2- | %146
 A2[I:staff +1] D2 E2 F2 G2[I:staff -1] c2 A2 B2 | G2 A2 F2 G2 E2 F2 D2 E2- | %148
 E2 DC D4 z2 EF G2 ^A2 | BF B4 A2- AD G4 F2- | FB, E4 D2 E2 z2 z2 E2 | E4 D4 B,8 |] %152
V:3
 E,6- | E,6- | E,2- E,/E,/D,/C,/ D,/F,/B,,/D,/ | E,E,, E,F, G,A, | B,6- | B,6- | %6
 B,2- B,/B,/^A,/G,/ A,/C/F,/A,/ | B,4- B,/C/B,/A,/ | G,6 | F,6- | %10
 F,/E,/D,/C,/ =C,/D,/F,/A,/- A,/A,/G,/F,/- | F,/E,/D,/F,/ E,/G,/C/E/- E/C/D/E/ | ^A,C FC A,F, | %13
 B, z z2 z2 | z/ D,/E,/F,/ G,/^A,/B,/C/ =D/C/D/B,/ | C3 B, ^A,2 | B,F, G,E, F,2 | %17
 B,B,, B,,B, B,B,, | B,B,, B,,B, B,B,, | B,B,, B,,B, B,B,, | %20
 B,B,/4^A,/4B,/4A,/4 B,/4A,/4F,/G,/A,/ B,/G,/F,/E,/ | %21
 D,/C,/D,/E,/ F,/D,/C,/B,,/ ^A,,/G,,/A,,/B,,/ |[I:staff -1] ^A,2 B,2[I:staff +1] z F,- | %23
 F,=G, F,E, F,2 | E,6- | E,6- | E,2- E,/E,/D,/C,/ D,/F,/B,,/D,/ | E,E,, E,F, G,A, | B,6- | B,6- | %30
 B,2- B,/B,/^A,/G,/ A,/C/F,/A,/ | B,4- B,/C/B,/A,/ | G,6 | F,6- | %34
 F,/E,/D,/C,/ =C,/D,/F,/A,/- A,/A,/G,/F,/- | F,/E,/D,/F,/ E,/G,/C/E/- E/C/D/E/ | ^A,C FC A,F, | %37
 B, z z2 z2 | z/ D,/E,/F,/ G,/^A,/B,/C/ =D/C/D/B,/ | C3 B, ^A,2 | B,F, G,E, F,2 | %41
 B,B,, B,,B, B,B,, | B,B,, B,,B, B,B,, | B,B,, B,,B, B,B,, | %44
 B,B,/4^A,/4B,/4A,/4 B,/4A,/4F,/G,/A,/ B,/G,/F,/E,/ | %45
 D,/C,/D,/E,/ F,/D,/C,/B,,/ ^A,,/G,,/A,,/B,,/ |[I:staff -1] ^A,2 B,2[I:staff +1] z F,- | %47
 F,=G, F,E, F,2 | B,6- | B,2 C/4^B,/4C/4B,/4C/4B,/4C/4B,/4 C/4B,/4C/4B,/4C/4B,/4C/4B,/4 | %50
 C2- C/B,/A,/G,/ A,/C/F,/A,/ | G,G,, G,A, G,F, | E, z z2 C,2 | =C, z z2 G,,2 | C,E, F,A, ^^F,G, | %55
 C,E, G,C B,A, | G,B, EG FE | D[K:treble]G FE DC |[K:bass] B,C B,A, G,F, | E,F, G,E, C,E, | %60
 A,,A,- A,/G,/F,/E,/ D,/C,/B,,/A,,/ | G,,G,- G,/F,/E,/D,/ C,/B,,/A,,/G,,/ | %62
 F,,F,- F,/E,/D,/C,/ B,,/A,,/G,,/F,,/ | E,,E,- E,/D,/E,/F,/ G,/B,/E,/G,/ | A,A,, A,B, A,G, | %65
 F,2 z G, F,E, | E,/4D,/4E,/4D,/4E,/4D,/4E,/4D,/4 E,/4D,/4B,/C/D/ E/C/B,/A,/ | %67
 G,/F,/G,/A,/ B,/G,/F,/E,/ D,/C,/D,/E,/ | F,/D,/C,/B,,/ E,C, A,,B,, | E,E,, E,,E, E,E,, | %70
 E,E,, E,,E, E,E,, | E,E,, E,,E, E,E,, | D,,/F,,/B,,/C,/ D,/E,/F,/G,/ A,/ z/ z | %73
 z/ B,/G,/E,/ B,2 z z/ A,/ | G,F, G,B, A,G, | A,B, CE z B, | =C2 z CCC | B,6 | B,6- | %79
 B,2 C/4^B,/4C/4B,/4C/4B,/4C/4B,/4 C/4B,/4C/4B,/4C/4B,/4C/4B,/4 | C2- C/B,/A,/G,/ A,/C/F,/A,/ | %81
 G,G,, G,A, G,F, | E, z z2 C,2 | =C, z z2 G,,2 | C,E, F,A, ^^F,G, | C,E, G,C B,A, | G,B, EG FE | %87
 DG FE DC | B,C B,A, G,F, | E,F, G,E, C,E, | A,,A,- A,/G,/F,/E,/ D,/C,/B,,/A,,/ | %91
 G,,G,- G,/F,/E,/D,/ C,/B,,/A,,/G,,/ | F,,F,- F,/E,/D,/C,/ B,,/A,,/G,,/F,,/ | %93
 E,,E,- E,/D,/E,/F,/ G,/B,/E,/G,/ | A,A,, A,B, A,G, | F,2 z G, F,E, | %96
 E,/4D,/4E,/4D,/4E,/4D,/4E,/4D,/4 E,/4D,/4B,/C/D/ E/C/B,/A,/ | %97
 G,/F,/G,/A,/ B,/G,/F,/E,/ D,/C,/D,/E,/ | F,/D,/C,/B,,/ E,C, A,,B,, | E,E,, E,,E, E,E,, | %100
 E,E,, E,,E, E,E,, | E,E,, E,,E, E,E,, | D,,/F,,/B,,/C,/ D,/E,/F,/G,/ A,/ z/ z | %103
 z/ B,/G,/E,/ B,2 z z/ A,/ | G,F, G,B, A,G, | A,B, CE z B, | =C2 z CCC | B,6 |[M:4/2] z16 | %109
 E,6 z2 F,4 A,4 | z8 B,8 | C4 E4 D4 C4 | B,6 B,2 A,2 B,2 C2 D2 | EA, E4 D2 E4 G,2 F,2 | %114
 G,4 E,4 F,8- | F,2 B,,2 E,4- E,2 C,2 F,4- | F,2 E,F, G,2 A,2 B,F, B,4 ^A,2 | B,4 z4 E,8 | %118
 F,4 A,4 G,4 F,4 | E,2 A,4 G,2 F,2 E,D, E,2 F,2 | G,2 A,2 B,F, A,2 G,4 F,4- | %121
 F,4 E,4 D,2 ^E,2 F,4 | C,2 D,2 E,2 F,2 G,2 D,2 G,4- | %123
 G,4 F,4- F,2 E,2 E,/4D,/4E,/4D,/4E,/4D,/4E,/4D,/4 E,/4D,/4E,/4D,/4E,/4D,/4E,/4D,/4 | %124
 C,2 G,2 C4 C2 B,^A, B,4- | B,2 A,G, A,2 B,A, G,6 G,2 | A,6 ^A,2 B,6 =A,2 | %127
 B,3 A, G,F,E,D, E,4 z4 | F,8 G,4 B,4 | A,4 G,4- G,2 F,4 ^E,2 | F,4 =D,4 C,8- | %131
 C,6 ^D,2 ^E,2 C,2 G,4 | F,4 G,2 C,2- C,2 ^B,,2 C,2 ^D,2 | E,2 F,E, D,4- D,4 E,2 F,2 | %134
 G,6 F,2 E,4 D,4 | E,4 z4 z8 | z4 B,4 C2 E2 D2 C2 | B,2 D2 C2 B,2 A,4 B,4 | B,6 A,2 G,6 C2 | %139
 F,2 D,2 E,2 F,2 G,2 B,2 C2 D2 | G,2 E,2 F,2 G,2 A,2 B,2 C4- | C2 C2 B,2 ^A,2 B,2 D2 C4 | %142
 B,6 ^A,G, =A,2[I:staff -1] B,2 ^C4 | B,4[I:staff +1] z4 E,8 | F,4 A,4 G,4 F,4 | E,4 z4 z4 z2 E,2 | %146
 D,2 B,2 C2 D2 EB, E4 D2- | DG, C4 B,2- B,E, A,4 G,2 | F,8 E,2 G,2 C2 F,2- | %149
 F,2 F,2 G,2 A,2 B,2 D,2 E,2 F,2 | G,4[I:staff -1] A,4 B,2[I:staff +1] z2 z2 z2 | %151
[I:staff -1] B,6 A,2[I:staff +1] G,8 |] %152
V:4
 x6 | x6 | x6 | x6 | x6 | x6 | x6 | x6 | x6 | x6 | x6 | x6 | x6 | x6 | x6 | x6 | x6 | x6 | x6 | %19
 x6 | x6 | x6 | C,/^A,,/G,,/F,,/ B,,G,, E,,F,, | B,,6 | x6 | x6 | x6 | x6 | x6 | x6 | x6 | x6 | %32
 x6 | x6 | x6 | x6 | x6 | x6 | x6 | x6 | x6 | x6 | x6 | x6 | x6 | x6 | %46
 C,/^A,,/G,,/F,,/ B,,G,, E,,F,, | B,,6 | x6 | x6 | x6 | x6 | x6 | x6 | x6 | x6 | x6 | %57
 x[K:treble] x5 |[K:bass] x6 | x6 | x6 | x6 | x6 | x6 | x6 | x6 | x6 | x6 | x6 | x6 | x6 | x6 | %72
 x6 | z2 z2 B,,2 | E,6- | E,6- | E,6- | E,6 | x6 | x6 | x6 | x6 | x6 | x6 | x6 | x6 | x6 | x6 | %88
 x6 | x6 | x6 | x6 | x6 | x6 | x6 | x6 | x6 | x6 | x6 | x6 | x6 | x6 | x6 | z2 z2 B,,2 | E,6- | %105
 E,6- | E,6- | E,6 |[M:4/2] x16 | x16 | G,4 F,4 E,2 D,C, D,2 B,,2 | %111
 E,2 F,2 G,2 ^A,2 B,F, B,4 =A,2- | A,2 G,F, G,4- G,4 F,4 | G,4 A,2 B,A, G,2 F,2 E,2 D,2 | %114
 C,8 B,,4 F,,4 | G,,6 E,,2 A,,6 F,,2 | B,,16- | B,,4 z4 z8 | z8 B,,8 | C,4 E,4 D,4 C,4 | %120
 B,,8 B,,4 A,,4 | G,,8 F,,2 G,,2 A,,2 B,,2 | C,2 G,,2 C,4- C,4 B,,4 | A,,8 G,,8 | %124
 C,4 z2 C,2 =D,6 ^D,2 | E,6 D,2 E,4 C,4 | F,4 E,4 D,4 C,4 | B,,8 C,4 E,4 | %128
 D,4 C,4 B,,2 G,,4 =A,,B,, | C,4 B,,4 A,,4 G,,4 | F,,4 B,,4 C,4 C,,4 | %131
 F,,2 G,,2 A,,2 F,,2 C,4 B,,2 C,2 | =D,2 C,2 ^B,,2 C,2 F,,2 G,,2 A,,4 | G,,8 ^A,,2 ^B,,2 C,4- | %134
 C,2 =B,,2 =A,,4 G,,8- | G,,4 F,,4 E,,2 C,,2 F,,4 | B,,4 z4 z4 F,4 | G,2 B,2 A,2 G,2 F,4 E,4 | %138
 B,4 B,,4 C,2 E,2 D,2 C,2 | D,2 B,,2 C,2 D,2 E,6 D,2 | E,2 C,2 D,2 ^E,2 F,6 E,2 | %141
 F,2 D,2 ^E,2 ^^F,2 G,6 ^^F,2 | G,4 ^E,4 D,4 D,,4 | G,,4 z4 z8 | z8 B,,8 | C,4 E,4 D,4 C,4 | %146
 B,,2 z2 z4 z8 | x16 | B,,8 C,4 E,4 | D,4 C,4 B,,4 A,,4 | G,,4 F,,4 E,,2 F,,2 G,,2 A,,2 | %151
 B,,8 !fermata!E,,8 |] %152
V:5
 x6 | x6 | x6 | x6 | x6 | x6 | x6 | x6 | x6 | x6 | x6 | x6 | x6 | x6 | x6 | x6 | x6 | x6 | x6 | %19
 x6 | x6 | x6 | x6 | x6 | x6 | x6 | x6 | x6 | x6 | x6 | x6 | x6 | x6 | x6 | x6 | x6 | x6 | x6 | %38
 x6 | x6 | x6 | x6 | x6 | x6 | x6 | x6 | x6 | x6 | x6 | x6 | x6 | x6 | x6 | x6 | x6 | x6 | x6 | %57
 x6 | x6 | x6 | x6 | x6 | x6 | z2 F/4E/4F/4E/4F/4E/4F/4E/4 F/4E/4F/4E/4F/4E/4F/4E/4 | x6 | x6 | %66
 x6 | x6 | x6 | x6 | x6 | x6 | B,2 z2 z2 | x6 | x6 | x6 | x6 | x6 | x6 | x6 | x6 | x6 | x6 | x6 | %84
 x6 | x6 | x6 | x6 | x6 | x6 | x6 | x6 | x6 | %93
 z2 F/4E/4F/4E/4F/4E/4F/4E/4 F/4E/4F/4E/4F/4E/4F/4E/4 | x6 | x6 | x6 | x6 | x6 | x6 | x6 | x6 | %102
 B,2 z2 z2 | x6 | x6 | x6 | x6 | x6 |[M:4/2] x16 | x16 | x16 | x16 | x16 | x16 | x16 | x16 | x16 | %117
 x16 | x16 | x16 | x16 | x16 | x16 | x16 | x16 | x16 | x16 | x16 | x16 | x16 | x16 | x16 | x16 | %133
 x16 | x16 | x16 | x16 | x16 | x16 | x16 | x16 | x16 | x16 | x16 | x16 | x16 | x16 | x16 | x16 | %149
 x16 | x16 | x16 |] %152
V:6
 x6 | x6 | x6 | x6 | x6 | x6 | x6 | x6 | x6 | x6 | x6 | x6 | x6 | x6 | x6 | x6 | x6 | x6 | x6 | %19
 x6 | x6 | x6 | x6 | x6 | x6 | x6 | x6 | x6 | x6 | x6 | x6 | x6 | x6 | x6 | x6 | x6 | x6 | x6 | %38
 x6 | x6 | x6 | x6 | x6 | x6 | x6 | x6 | x6 | x6 | x6 | x6 | x6 | x6 | x6 | x6 | x6 | x6 | x6 | %57
 x[K:treble] x5 |[K:bass] x6 | x6 | x6 | x6 | x6 | x6 | x6 | x6 | x6 | x6 | x6 | x6 | x6 | x6 | %72
 x6 | x6 | x6 | z2 z2 A,2- | A,2 z A,A,A, | G,6 | x6 | x6 | x6 | x6 | x6 | x6 | x6 | x6 | x6 | x6 | %88
 x6 | x6 | x6 | x6 | x6 | x6 | x6 | x6 | x6 | x6 | x6 | x6 | x6 | x6 | x6 | x6 | x6 | z2 z2 A,2- | %106
 A,2 z A,A,A, | G,6 |[M:4/2] x16 | x16 | x16 | x16 | x16 | x16 | x16 | x16 | x16 | x16 | x16 | %119
 x16 | x16 | x16 | x16 | x16 | x16 | x16 | x16 | x16 | x16 | x16 | x16 | x16 | x16 | x16 | x16 | %135
 x16 | x16 | x16 | x16 | x16 | x16 | x16 | x16 | x16 | x16 | x16 | x16 | x16 | x16 | x16 | x16 | %151
 x16 |] %152

